!!!OTL: 42. Reiterlied aus "Wallensteins Lager".
!!!COM: Christ. Jakob Zahn
!!!ODT: 1797
!!!ARE: Europa, Mitteleuropa, Deutschland
!!!SCT: B0042
!!!TXL: @@DE
!!!YEM: Copyright 1995, estate of Helmut Schaffrath.
**kern	**text
*ICvox	*
*Ivox	*
*M4/4	*
*met(c)	*
*clefG2	*
*k[b-e-]	*
*B-:	*
!LO:TX:a:t=Marſchmäßig.	!
{4f	Wohl-
=1	=1
4b-	-auf,
8b-/	Ka-
8b-/	-me-
8b-L	-ra-
8fJ	.
(8d	-den,
8B-)	aufs
=2	=2
4f	Pferd,
4f	aufs
4f}	Pferd!
{8b-L	Jns
8ccJ	.
=3	=3
4dd	Feld,
(8cc	in
8dd)	die
4ee-	Frei-
8dd	-heit
8dd	ge-
=4	=4
4dd	-ʒo-
4cc	-gen!
4r}	.
{4f	Jm
=5	=5
4b-	Fel-
8b-/	-de,
8b-/	da
8b-L	iſt
8fJ	.
(8d	der
8B-)	.
=6	=6
4f	Mann
4f	noch_was
4f}	werth,
{8b-L	da
8ccJ	.
=7	=7
4dd	wird
(8cc	das
8dd)	.
4ee-	Herʒ
8dd	noch
8dd	ge-
=8	=8
4dd	-wo-
4cc	-gen.
4r}	.
{8fL	Da
8aJ	.
=9	=9
4cc	tritt
4cc	kein
4cc	an-
8b-	-de-
8cc	-rer
=10	=10
4dd	für
4cc	ihn
4b-}	ein,
{8b-	auf
8dd	ſich
=11	=11
4ff	ſel-
4f	-ber
4f	ſteht
8g	er
8a	da
=12	=12
8b-L	ganz
8ddJ	.
8cc/L	al-
8aJ	.
4b-;}	-lein.
{8fL	Da
8aJ	.
=13	=13
4cc	tritt
4cc	kein
4cc	an-
8b-	-de-
8cc	-rer
=14	=14
4dd	für
4cc	ihn
4b-}	ein,
{8b-	auf
8dd	ſich
=15	=15
4ff	ſel-
4f	-ber
4f	ſteht
8g	er
8a	da
=16	=16
8b-L	ganz
8ddJ	.
8cc/L	al-
8aJ	.
4b-;}	-lein.
==	==
!!!AGN: Kriegs -, Sieges -, Soldaten - Lied
!!!GTL: Kriegs- und Siegeslieder
!!!ONB: ESAC (Essen Associative Code) Database: BOEHME
!!!AMT: simple quadruple
!!!AIN: vox
!!!EED: Helmut Schaffrath
!!!EEV: 1.0
!!Text: Schiller
!!!URL-scan: https://archive.org/details/BoehmeVtLieder1895/page/n59/mode/2up
!!!ENC: Anna Maria Matuszewska
!!!EEV: 2024/14/06
*-	*-